X:1
T:Title
%%score { ( 1 3 ) | ( 2 4 ) }
L:1/8
M:6/8
K:G
V:1 treble nm="Grand Piano"
V:3 treble 
V:2 bass 
V:4 bass 
V:1
 z3 z2[Q:1/4=90] [B,D] | [DB]2 [B,G] [B,D]2 [DG] | F2 E E2 E | [Ec]2 [EB] [EA]2 [EG] | %4
[M:5/8] G2 F F2 |[M:1/8] D |[M:3/4] d2 B G2 B |[M:7/8] A2 B [Ec]3 [G,CE] | %8
[M:3/4] [G,D]2 [B,DG]D- [G,DG][EA] | [DB]2 [CDA] [B,DG]3 |[M:1/8] B |[M:3/4] A6 | B6 | ^c6 | d6 | %15
[M:1/8] d |[M:3/4] d2 B G2 B |[M:7/8] A2 B [Ec]3 [G,CE] |[M:3/4] [G,D]2 [B,DG]D- [G,DG][EA] | %19
 [DB]2 [CDA] [B,DG]3 |] %20
V:2
 z3 z2 [G,,G,] | [G,,G,]2 [G,,G,] [G,,G,]2 [B,,G,] | [C,G,C]2 [C,G,C] [C,G,C]2 [C,G,C] | %3
 [A,,A,]2 [B,,^G,] [C,A,]2 [^C,A,] |[M:5/8] [D,B,D]2 [D,A,D] [D,A,D]2 |[M:1/8] [F,C] | %6
[M:3/4] [G,B,D]2 [G,D] [G,B,D]2 [G,D] |[M:7/8] [D,F,D]2 [G,=F] [C,G,]3 C, | %8
[M:3/4] B,,2 G,,A,, B,,[C,G,] | [D,G,]2 D, G,,3 |[M:1/8][K:treble] G | %11
[M:3/4] F6[K:bass][K:treble] | G6 | E4- E[K:bass][A,,A,] | [D,A,]2 [D,B,] [D,C]3 |[M:1/8] [F,CD] | %16
[M:3/4] [G,B,D]2 [G,D] [G,B,]2 [G,D] |[M:7/8] [D,F,D]2 [G,=F] [C,G,]3 C, | %18
[M:3/4] B,,2 G,,A,, B,,[C,G,] | [D,G,]2 D, G,,3 |] %20
V:3
 x6 | x6 | x6 | x6 |[M:5/8] x5 |[M:1/8] x |[M:3/4] x6 |[M:7/8] x7 |[M:3/4] z2 z [A,F] z2 | x6 | %10
[M:1/8] x |[M:3/4] z2 D D2 c | z2 D D2 d | z2 A, A,2 [Ge] | F2 G A3 |[M:1/8] x |[M:3/4] x6 | %17
[M:7/8] x7 |[M:3/4] z2 z [A,F] z2 | x6 |] %20
V:4
 x6 | x6 | x6 | x6 |[M:5/8] x5 |[M:1/8] x |[M:3/4] x6 |[M:7/8] x7 |[M:3/4] x6 | x6 | %10
[M:1/8][K:treble] x |[M:3/4] z2[K:bass] D, D,2[K:treble] A | z2 G, G,2 F | x5[K:bass] x | x6 | %15
[M:1/8] x |[M:3/4] x6 |[M:7/8] x7 |[M:3/4] x6 | x6 |] %20

